icons/svg/icons8/wine_glass.svg

<svg width="26" height="26" viewBox="0 0 26 26" fill="none" xmlns="http://www.w3.org/2000/svg">
<path d="M20.694 2C20.897 2.834 21 3.694 21 4.571C21 9.771 17.411 14 13 14C8.589 14 5 9.771 5 4.571C5 3.694 5.103 2.834 5.305 2H20.694ZM22.162 0H3.838C3.302 1.4 3 2.945 3 4.571C3 10.883 7.478 16 13 16C18.522 16 23 10.883 23 4.571C23 2.945 22.698 1.4 22.162 0Z" fill="#333333"/>
<path d="M14 22C14 21.33 14 20.322 14 18.5C14 16.458 17.094 15 17.094 15H13H8.90599C8.90599 15 12 16.458 12 18.5C12 20.328 12 21.344 12 22C12 24 6.01599 25.016 7.21299 26H18.788C19.984 25.047 14 24 14 22Z" fill="#333333"/>
<path d="M14.9999 15.765C19.1599 14.797 22.3799 10.878 22.9139 6H7.08594C7.61994 10.877 10.8399 14.797 14.9999 15.765Z" fill="#333333"/>
</svg>

<?xml version="1.0" encoding="utf-8"?>
<!-- Generator: Adobe Illustrator 16.0.0, SVG Export Plug-In . SVG Version: 6.00 Build 0)  -->
<!DOCTYPE svg PUBLIC "-//W3C//DTD SVG 1.1//EN" "http://www.w3.org/Graphics/SVG/1.1/DTD/svg11.dtd">
<svg version="1.1" id="Layer_1" xmlns="http://www.w3.org/2000/svg" xmlns:xlink="http://www.w3.org/1999/xlink" x="0px" y="0px"
	 width="26px" height="26px" viewBox="0 0 26 26" enable-background="new 0 0 26 26" xml:space="preserve">
<rect fill="none" width="26" height="26"/>
<rect fill="none" width="26" height="26"/>
<g>
	<path fill="#333333" d="M20.694,2C20.897,2.834,21,3.694,21,4.571C21,9.771,17.411,14,13,14S5,9.771,5,4.571
		C5,3.694,5.103,2.834,5.305,2H20.694 M22.162,0H3.838C3.302,1.4,3,2.945,3,4.571C3,10.883,7.478,16,13,16s10-5.117,10-11.429
		C23,2.945,22.698,1.4,22.162,0L22.162,0z"/>
</g>
<path fill="#333333" d="M14,22c0-0.67,0-1.678,0-3.5c0-2.042,3.094-3.5,3.094-3.5H13H8.906c0,0,3.094,1.458,3.094,3.5
	c0,1.828,0,2.844,0,3.5c0,2-5.984,3.016-4.787,4h11.575C19.984,25.047,14,24,14,22z"/>
<g>
	<path fill="#333333" d="M15,15.765c4.16-0.968,7.38-4.887,7.914-9.765H7.086C7.62,10.877,10.84,14.797,15,15.765z"/>
</g>
</svg>
